packages/foundations/assets/icons/functional/images/arrows/arrow_right_32.svg

<svg width="32" height="32" viewBox="0 0 32 32" fill="none" xmlns="http://www.w3.org/2000/svg">
<g clip-path="url(#clip0_77_478)">
<path fill-rule="evenodd" clip-rule="evenodd" d="M5.99963 16.0004C5.99963 16.5634 6.43763 17.0004 6.99963 17.0004H22.5936L16.2806 23.2814C16.1866 23.3753 16.1131 23.4877 16.0648 23.6114C16.0164 23.7352 15.9942 23.8676 15.9996 24.0004C15.9996 24.5634 16.4056 25.0004 16.9996 25.0004C17.2496 25.0004 17.4996 24.9384 17.7186 24.7194L25.7186 16.7194C25.8126 16.6254 25.8861 16.513 25.9344 16.3893C25.9828 16.2656 26.005 16.1331 25.9996 16.0004C25.9996 15.7504 25.9366 15.5004 25.7186 15.2814L17.7186 7.28138C17.6245 7.18735 17.512 7.11384 17.3881 7.06547C17.2641 7.01711 17.1315 6.99495 16.9986 7.00038C16.4056 7.00038 15.9986 7.46938 15.9986 8.00038C15.9986 8.25038 16.0616 8.50038 16.2806 8.71938L22.5936 15.0004H6.99963C6.43663 15.0004 5.99963 15.4384 5.99963 16.0004Z" fill="#1A1C1F"/>
</g>
<defs>
<clipPath id="clip0_77_478">
<rect width="32" height="32" fill="white"/>
</clipPath>
</defs>
</svg>

<svg xmlns="http://www.w3.org/2000/svg" width="32" height="32" fill="none"><g clip-path="url(#a)"><path fill="#1A1C1F" fill-rule="evenodd" d="M6 16c0 .563.438 1 1 1h15.594l-6.313 6.281a.96.96 0 0 0-.281.72c0 .562.406 1 1 1 .25 0 .5-.063.719-.282l8-8a.96.96 0 0 0 .28-.719c0-.25-.062-.5-.28-.719l-8-8a.96.96 0 0 0-.72-.28c-.593 0-1 .468-1 1 0 .25.063.5.282.718L22.594 15H7c-.563 0-1 .438-1 1" clip-rule="evenodd"/></g><defs><clipPath id="a"><path fill="#fff" d="M0 0h32v32H0z"/></clipPath></defs></svg>
